X:4
M:4/4
L:1/4
K:D
d | d d A/B/ c | d/c/ B !fermata!A d | c B A B | (G/F/ E) !fermata!D d | d d A/B/ c | d/c/ B !fermata!A d | c B A B | (G/F/ E) !fermata!D D | F A B ^G | !fermata!A D A A | B c !fermata!d c | d c B B | !fermata!A B B A | B G !fermata!F !sintro!d | c B A B | (G/F/ E) !fermata!D !eintro!|]
